ix/gallery-remove_outline.svg

<svg viewBox="0 0 24 24" fill="none" xmlns="http://www.w3.org/2000/svg" height="1em" width="1em">
  <path d="M9 10.75C7.48 10.75 6.25 9.52 6.25 8C6.25 6.48 7.48 5.25 9 5.25C10.52 5.25 11.75 6.48 11.75 8C11.75 9.52 10.52 10.75 9 10.75ZM9 6.75C8.31 6.75 7.75 7.31 7.75 8C7.75 8.69 8.31 9.25 9 9.25C9.69 9.25 10.25 8.69 10.25 8C10.25 7.31 9.69 6.75 9 6.75Z" fill="#292D32"/>
  <path d="M15 22.75H9C3.57 22.75 1.25 20.43 1.25 15V9C1.25 3.57 3.57 1.25 9 1.25H13C13.41 1.25 13.75 1.59 13.75 2C13.75 2.41 13.41 2.75 13 2.75H9C4.39 2.75 2.75 4.39 2.75 9V15C2.75 19.61 4.39 21.25 9 21.25H15C19.61 21.25 21.25 19.61 21.25 15V10C21.25 9.59 21.59 9.25 22 9.25C22.41 9.25 22.75 9.59 22.75 10V15C22.75 20.43 20.43 22.75 15 22.75Z" fill="#292D32"/>
  <path d="M16.56 7.69023C16.37 7.69023 16.18 7.62023 16.03 7.47023C15.74 7.18023 15.74 6.70023 16.03 6.41023L19.92 2.52023C20.21 2.23023 20.69 2.23023 20.98 2.52023C21.27 2.81023 21.27 3.29023 20.98 3.58023L17.09 7.47023C16.94 7.62023 16.75 7.69023 16.56 7.69023Z" fill="#292D32"/>
  <path d="M20.4402 7.69023C20.2502 7.69023 20.0602 7.62023 19.9102 7.47023L16.0202 3.58023C15.7302 3.29023 15.7302 2.81023 16.0202 2.52023C16.3102 2.23023 16.7902 2.23023 17.0802 2.52023L20.9702 6.41023C21.2602 6.70023 21.2602 7.18023 20.9702 7.47023C20.8302 7.62023 20.6402 7.69023 20.4402 7.69023Z" fill="#292D32"/>
  <path d="M2.66932 19.7001C2.42932 19.7001 2.18932 19.5801 2.04932 19.3701C1.81932 19.0301 1.90932 18.5601 2.24932 18.3301L7.17932 15.0201C8.25932 14.3001 9.74932 14.3801 10.7293 15.2101L11.0593 15.5001C11.5593 15.9301 12.4093 15.9301 12.8993 15.5001L17.0593 11.9301C18.1193 11.0201 19.7893 11.0201 20.8593 11.9301L22.4893 13.3301C22.7993 13.6001 22.8393 14.0701 22.5693 14.3901C22.2993 14.7001 21.8293 14.7401 21.5093 14.4701L19.8793 13.0701C19.3793 12.6401 18.5293 12.6401 18.0393 13.0701L13.8793 16.6401C12.8193 17.5501 11.1493 17.5501 10.0793 16.6401L9.74932 16.3501C9.28932 15.9601 8.52932 15.9201 8.01932 16.2701L3.09932 19.5801C2.95932 19.6601 2.80932 19.7001 2.66932 19.7001Z" fill="#292D32"/>
</svg>

<svg viewBox="0 0 24 24" fill="none" xmlns="http://www.w3.org/2000/svg" height="1em" width="1em">
  <path d="M9 10.75c-1.52 0-2.75-1.23-2.75-2.75S7.48 5.25 9 5.25 11.75 6.48 11.75 8 10.52 10.75 9 10.75Zm0-4a1.25 1.25 0 1 0 0 2.5 1.25 1.25 0 0 0 0-2.5Z" fill="#292D32"/>
  <path d="M15 22.75H9c-5.43 0-7.75-2.32-7.75-7.75V9c0-5.43 2.32-7.75 7.75-7.75h4c.41 0 .75.34.75.75s-.34.75-.75.75H9C4.39 2.75 2.75 4.39 2.75 9v6c0 4.61 1.64 6.25 6.25 6.25h6c4.61 0 6.25-1.64 6.25-6.25v-5c0-.41.34-.75.75-.75s.75.34.75.75v5c0 5.43-2.32 7.75-7.75 7.75Z" fill="#292D32"/>
  <path d="M16.56 7.69c-.19 0-.38-.07-.53-.22a.754.754 0 0 1 0-1.06l3.89-3.89c.29-.29.77-.29 1.06 0 .29.29.29.77 0 1.06l-3.89 3.89c-.15.15-.34.22-.53.22Z" fill="#292D32"/>
  <path d="M20.44 7.69c-.19 0-.38-.07-.53-.22l-3.89-3.89a.754.754 0 0 1 0-1.06c.29-.29.77-.29 1.06 0l3.89 3.89c.29.29.29.77 0 1.06a.71.71 0 0 1-.53.22ZM2.67 19.7a.751.751 0 0 1-.42-1.37l4.93-3.31c1.08-.72 2.57-.64 3.55.19l.33.29c.5.43 1.35.43 1.84 0l4.16-3.57c1.06-.91 2.73-.91 3.8 0l1.63 1.4c.31.27.35.74.08 1.06-.27.31-.74.35-1.06.08l-1.63-1.4c-.5-.43-1.35-.43-1.84 0l-4.16 3.57c-1.06.91-2.73.91-3.8 0l-.33-.29c-.46-.39-1.22-.43-1.73-.08L3.1 19.58c-.14.08-.29.12-.43.12Z" fill="#292D32"/>
</svg>
